images/icons/tviter.svg

<svg width="15" height="13" viewBox="0 0 15 13" fill="#000000" xmlns="http://www.w3.org/2000/svg">
<path d="M14.7692 1.92062C14.22 2.16154 13.6348 2.32123 13.0246 2.39877C13.6523 2.024 14.1314 1.43508 14.3566 0.725231C13.7714 1.07415 13.1252 1.32062 12.4366 1.45815C11.8809 0.866462 11.0889 0.5 10.2249 0.5C8.54862 0.5 7.19908 1.86062 7.19908 3.52862C7.19908 3.76862 7.21938 3.99938 7.26923 4.21908C4.752 4.09631 2.52462 2.88985 1.02831 1.052C0.767077 1.50523 0.613846 2.024 0.613846 2.58246C0.613846 3.63108 1.15385 4.56062 1.95877 5.09877C1.47231 5.08954 0.995077 4.94831 0.590769 4.72585C0.590769 4.73508 0.590769 4.74708 0.590769 4.75908C0.590769 6.23046 1.64031 7.45262 3.01662 7.73415C2.77015 7.80154 2.50154 7.83385 2.22277 7.83385C2.02892 7.83385 1.83323 7.82277 1.64954 7.78215C2.04185 8.98123 3.15508 9.86277 4.47877 9.89138C3.44862 10.6972 2.14062 11.1828 0.724615 11.1828C0.476308 11.1828 0.238154 11.1717 0 11.1412C1.34123 12.0062 2.93077 12.5 4.64492 12.5C10.2166 12.5 13.2628 7.88462 13.2628 3.884C13.2628 3.75015 13.2582 3.62092 13.2517 3.49262C13.8526 3.06615 14.3575 2.53354 14.7692 1.92062Z"/>
</svg>

<svg width="15" height="13" fill="none" xmlns="http://www.w3.org/2000/svg"><path d="M14.77 1.92a6.304 6.304 0 01-1.745.479A3.01 3.01 0 0014.357.725a6.05 6.05 0 01-1.92.733 3.027 3.027 0 00-5.238 2.07c0 .24.02.471.07.691a8.57 8.57 0 01-6.24-3.167 3.032 3.032 0 00.93 4.047A2.99 2.99 0 01.59 4.726v.033a3.042 3.042 0 002.426 2.975 3 3 0 01-.794.1c-.194 0-.39-.011-.573-.052a3.057 3.057 0 002.829 2.11 6.084 6.084 0 01-3.754 1.29c-.249 0-.487-.01-.725-.04A8.524 8.524 0 004.645 12.5c5.572 0 8.618-4.615 8.618-8.616a7.68 7.68 0 00-.011-.391 6.04 6.04 0 001.517-1.572z" fill="#211105"/></svg>
